X:1
T:Title
%%score { ( 1 3 ) | ( 2 4 ) }
L:1/8
Q:1/4=100
M:4/4
K:G
V:1 treble nm="Grand Piano"
V:3 treble 
V:2 treble 
V:4 treble 
V:1
 BB_B=B c B2 G | [EA][EG][EG][CE] [B,D]4 | DFF=F ^F [FA]2 [FA] | AGGA B4 | BB_B=B c B2 d | %5
w: Wm.~J.~Kirkpatrick * * * * * *|||||
[M:7/8] dBA G E3 |[M:1/8] E |[M:4/4] [EA][EG][G,DF][G,CE] [G,B,D] [B,DG]2 [B,DG] | %8
w: |||
[M:7/8] [A,DG][A,DF][A,DE] [A,DF] [B,DG]3 |[M:1/4] d2 |[M:4/4] d4 z4 | [Fc]6 [Fc]2 | %12
w: ||||
 [Fc]3 [CFA] [B,=F^G][^FA][Fd][DFc] | [DGB]6 [DGB]2 | [DGB]3 [B,DG] [_B,DF][DG][DA][G,DG] | %15
w: |||
 G,2- [G,-Ge]2 [G,Gd]2 [EGc]2 |[M:17/16] [DGB]/-[DGB]/-[DGB]-<[DGB][B,DG][A,DF][DG][GB]3/2[CFA] | %17
w: ||
[M:3/4] [B,DG]6 |] %18
w: |
V:2
 [G,DG][G,DG][G,^CG][G,DG] [G,EG] [G,DG]2[K:bass] [G,B,D] | [C,C][C,C][C,C][C,G,] [G,,G,]4 | %2
 [D,F,][D,A,D][D,A,D][D,^G,D] [D,A,D] [D,C]2 [D,C] | [G,CD][G,B,D][G,B,D][G,CD] [G,DG]4 | %4
 [G,DG][G,DG][G,^CG][G,DG] [G,EG] [G,DG]2 [G,B,G] | %5
[M:7/8] [G,B,G][G,DG][K:bass][G,CD] [G,B,D] [C,G,C]3 |[M:1/8] [C,G,C] | %7
[M:4/4] [C,C][C,C]C,C, G,, G,,2 G,, |[M:7/8] D,D,D, D, G,,3 |[M:1/4][K:treble] [G,B,G]2 | %10
[M:4/4] [B,G]3 [G,DG] [^CG][DG][=CG][G,B,G] | A,3 A,- A,2 z2 | A,4 D,4 | G,G,,B,,D, G,2 G,2 | %14
 G,G,G,G, z B,CB,, | C,C,C,C, B,,2 C,2 |[M:17/16] D,D,D,D, z B,D3/2D, |[M:3/4] G,,6 |] %18
V:3
 x8 | x8 | x8 | x8 | x8 |[M:7/8] x7 |[M:1/8] x |[M:4/4] x8 |[M:7/8] x7 |[M:1/4] x2 | %10
[M:4/4] z G,G,B _B=Bed | x8 | x8 | x8 | x8 | E2 z2 z4 |[M:17/16] x17/2 |[M:3/4] x6 |] %18
V:4
 x7[K:bass] x | x8 | x8 | x8 | x8 |[M:7/8] x2[K:bass] x5 |[M:1/8] x |[M:4/4] x8 |[M:7/8] x7 | %9
[M:1/4][K:treble] x2 |[M:4/4] .G,2 z2 G,4 | D,D, .F,2 D,2 [D,A,]2 | D,D,D,D, z CA,D, | x8 | %14
 z4 G,4 | x8 |[M:17/16] z/ z/ z/ z/ z/ z/ z D,/-D,/-D,/-D,-<D, z |[M:3/4] x6 |] %18

